build/img/play.svg

<svg width="101" height="77" viewBox="0 0 101 77" fill="none" xmlns="http://www.w3.org/2000/svg">
<path d="M97.2852 18.1472C97.2852 18.1472 96.3817 11.1289 93.4701 8.02085C89.8558 4.01044 85.7395 3.91016 83.9324 3.70964C70.5795 2.70703 50.5 2.70703 50.5 2.70703H50.3996C50.3996 2.70703 30.32 2.70703 16.9671 3.70964C15.0596 3.91016 11.0437 4.01044 7.42938 8.02085C4.61824 11.1289 3.61427 18.1472 3.61427 18.1472C3.61427 18.1472 2.71069 26.3685 2.71069 34.5899V42.3099C2.71069 50.5313 3.61427 58.7526 3.61427 58.7526C3.61427 58.7526 4.51785 65.7708 7.42938 68.8789C11.0437 72.8893 15.8628 72.7891 17.9711 73.1901C25.6013 73.9922 50.5 74.1927 50.5 74.1927C50.5 74.1927 70.5795 74.1927 83.9324 73.1901C85.8399 72.9896 89.8558 72.8893 93.4701 68.8789C96.2813 65.7708 97.2852 58.7526 97.2852 58.7526C97.2852 58.7526 98.1888 50.5313 98.1888 42.3099V34.5899C98.1888 26.3685 97.2852 18.1472 97.2852 18.1472Z" fill="#63D1BB"/>
<path d="M50.3996 77C49.3956 77 25.3002 76.6992 17.67 75.9974H17.5696H17.4692C17.168 75.8971 16.7664 75.8972 16.3648 75.7969C13.8549 75.4961 9.13618 74.8946 5.52187 70.7839C2.10835 67.1745 1.10437 59.9557 1.00398 59.1537C1.00398 58.8529 0 50.6315 0 42.4102V34.6901C0 26.3685 0.903588 18.2474 0.903588 17.9466V17.8463C1.00399 17.0443 2.10836 9.92577 5.42148 6.21613C9.43738 1.80467 13.9553 1.30339 16.164 1.10287C16.3648 1.10287 16.5656 1.10286 16.666 1.0026H16.7664C30.1193 0 50.1988 0 50.3996 0H50.5C50.7008 0 70.7803 0 84.1332 1.0026H84.2336C84.4344 1.0026 84.5348 1.00261 84.7356 1.10287C86.9443 1.30339 91.4622 1.80467 95.4781 6.21613C98.8917 9.8255 99.8956 17.0443 99.996 17.8463C99.996 18.1471 101 26.3685 101 34.6901V42.4102C101 50.7318 100.096 58.8529 99.996 59.1537V59.2539C99.8956 60.056 98.7913 67.2747 95.4781 70.8841C91.4622 75.2956 86.9443 75.7969 84.7356 75.9974C84.5348 75.9974 84.334 75.9974 84.2336 76.0977H84.1332C70.7803 77 50.6004 77 50.3996 77ZM18.3728 70.5833C25.9026 71.2852 49.6968 71.5859 50.5 71.5859C51.2028 71.5859 70.6799 71.5859 83.6312 70.5833C83.832 70.5833 84.0328 70.5833 84.2336 70.4831C86.0407 70.2826 88.8519 69.9818 91.4622 67.1745C93.2694 65.1693 94.3738 60.2565 94.5746 58.5521C94.675 58.0508 95.4781 50.1302 95.4781 42.4102V34.6901C95.4781 26.8698 94.5746 19.0495 94.4742 18.5482C94.173 16.1419 93.0686 11.7305 91.3618 10.026C88.7515 7.11849 85.9404 6.91795 84.1332 6.71743C83.9324 6.71743 83.7316 6.71746 83.5308 6.6172C70.3787 5.61459 50.6004 5.61459 50.3996 5.61459H50.2992C50.0984 5.61459 30.2197 5.61459 17.168 6.6172C16.9672 6.6172 16.7664 6.61717 16.5656 6.71743C14.7584 6.91795 11.9473 7.21875 9.337 10.026C7.52984 12.0313 6.42546 16.944 6.22466 18.6484C6.12427 19.25 5.32108 27.0703 5.32108 34.7904V42.5104C5.32108 50.2305 6.22466 58.1511 6.22466 58.6524C6.52586 61.0586 7.63024 65.4701 9.337 67.1745C11.6461 69.7813 14.6581 70.1823 16.8668 70.4831C17.4692 70.3828 17.8708 70.4831 18.3728 70.5833Z" fill="white"/>
<path d="M38.4521 20.5532V56.3462L68.3706 38.4998L38.4521 20.5532Z" fill="white"/>
</svg>

<svg width="101" height="77" fill="none" xmlns="http://www.w3.org/2000/svg"><path d="M97.285 18.147s-.903-7.018-3.815-10.126c-3.614-4.01-7.73-4.11-9.538-4.311C70.58 2.707 50.5 2.707 50.5 2.707h-.1s-20.08 0-33.433 1.003c-1.907.2-5.923.3-9.538 4.31-2.81 3.109-3.815 10.127-3.815 10.127s-.903 8.222-.903 16.443v7.72c0 8.221.903 16.443.903 16.443s.904 7.018 3.815 10.126c3.615 4.01 8.434 3.91 10.542 4.311 7.63.802 32.529 1.003 32.529 1.003s20.08 0 33.432-1.003c1.908-.2 5.924-.3 9.538-4.311 2.811-3.108 3.815-10.126 3.815-10.126s.904-8.222.904-16.443v-7.72c0-8.222-.904-16.443-.904-16.443z" fill="#63D1BB"/><path d="M50.4 77c-1.004 0-25.1-.3-32.73-1.003h-.2c-.302-.1-.704-.1-1.105-.2-2.51-.3-7.229-.902-10.843-5.013-3.414-3.61-4.418-10.828-4.518-11.63C1.004 58.853 0 50.63 0 42.41v-7.72c0-8.321.904-16.443.904-16.743v-.1c.1-.803 1.204-7.921 4.517-11.63 4.016-4.412 8.534-4.914 10.743-5.114.2 0 .402 0 .502-.1h.1C30.12 0 50.2 0 50.4 0h.1c.2 0 20.28 0 33.633 1.003h.1c.201 0 .302 0 .503.1 2.208.2 6.726.702 10.742 5.113 3.414 3.61 4.418 10.828 4.518 11.63 0 .301 1.004 8.523 1.004 16.844v7.72c0 8.322-.904 16.443-1.004 16.744v.1c-.1.802-1.205 8.02-4.518 11.63-4.016 4.412-8.534 4.913-10.742 5.113-.201 0-.402 0-.502.1h-.1C70.78 77 50.6 77 50.4 77zm-32.027-6.417c7.53.702 31.324 1.003 32.127 1.003.703 0 20.18 0 33.131-1.003.201 0 .402 0 .603-.1 1.807-.2 4.618-.501 7.228-3.309 1.807-2.005 2.912-6.918 3.113-8.622.1-.501.903-8.422.903-16.142v-7.72c0-7.82-.903-15.64-1.004-16.142-.301-2.406-1.405-6.817-3.112-8.522-2.61-2.908-5.422-3.108-7.229-3.309-.2 0-.401 0-.602-.1C70.379 5.615 50.6 5.615 50.4 5.615h-.1c-.202 0-20.08 0-33.132 1.002-.2 0-.402 0-.602.1-1.808.201-4.619.502-7.229 3.309-1.807 2.005-2.912 6.918-3.112 8.622-.1.602-.904 8.422-.904 16.142v7.72c0 7.72.904 15.641.904 16.142.3 2.407 1.405 6.818 3.112 8.522 2.31 2.607 5.321 3.008 7.53 3.31.602-.101 1.004 0 1.506.1z" fill="#fff"/><path d="M38.452 20.553v35.793L68.371 38.5 38.452 20.553z" fill="#fff"/></svg>
